X:1
T:Caprice No. 12
T:Caprice No. 12
T:Op. 20
T:Luigi Legnani (1790 - 1877)
C:Luigi Legnani
%%score ( 1 2 )
L:1/8
Q:1/4=180
M:6/8
K:C
V:1 treble-8 nm="Classical Guitar" snm="Guit."
V:2 treble-8 
V:1
"^Allegro non tanto"!f! [EGc]3 G3 | e3 c3 | g3 e3 | c'3 z3 | e'^d'=d' ^c'=c'b | _ba_a g^f=f | %6
 e^d=d ^c=cB | _BA^G =G^F=F | E2 z !fermata!z3 | [FAd]2 z fga | c3 !>![_EAc]3 | [=EGc]2 z [GB]2 z | %12
 z6 | z3 gBc | z6 | z3 gBc | z6 | z3 a^cd | z6 | z3 dfB | c2 z z3 | z3 gBc | z6 | z3 gBc | z6 | %25
 z3 a^cd | z6 | z3 dfB | cgg ggg | z [Acf][Acf] z [GBe][GBe] | z [FAd][FAd] z [EGc][EGc] | %31
 z [FAd][FAd] z [DGB][DGB] | z3 ceg | z [Acf][Acf] z [GBe][GBe] | z [FAd][FAd] z [EGc][EGc] | %35
 z [FAd][FAd] z [DGB][DGB] | [EGc]3 G3 | e3 c3 | g3 e3 | c'3 z z2 | e'^d'=d' ^c'=c'b | %41
 _ba_a g^f=f | e^d=d ^c=cB | _BA^G =G^F=F | E2 z z3 | [FAd]2 z fga | c3 !>![_EAc]3 | %47
 [=EGc]2 z [GB]2 z | [EGc]2 z z3 | [DGBdg]2 z z3 | [Gcegc']2 z z3 | [GB]2 z z3 | [CEGc]6 |] %53
V:2
 C3 G,3 | E3 C3 | G3 E3 | c3 z3 | e^d=d ^c=cB | _BA_A G^F=F | E^D=D ^C=CB, | _B,A,^G, =G,^F,=F, | %8
 E,2 z !fermata!z3 | F,2 z z3 | z3 !>!^F,3 | G,2 z [G,DF]2 z | [EG][EG][EG] [EG][EG][EG] | %13
 [EG][EG][EG] [EG][EG][EG] | [EG][EG][EG] [EG][EG][EG] | [EG][EG][EG] [EG][EG][EG] | %16
 [FA][FA][FA] [FA][FA][FA] | [FA][FA][FA] [FA][FA][FA] | [F_A][FA][FA] [FA][FA][FA] | %19
 [FG][FG][FG] [FG][FG][FG] | [EG][EG][EG] [EG][EG][EG] | [EG][EG][EG] [EG][EG][EG] | %22
 [EG][EG][EG] [EG][EG][EG] | [EG][EG][EG] [EG][EG][EG] | [FA][FA][FA] [FA][FA][FA] | %25
 [FA][FA][FA] [FA][FA][FA] | [F_A][FA][FA] [FA][FA][FA] | [FG][FG][FG] [FG][FG][FG] | [EG]2 z z3 | %29
 A,2 z G,2 z | F,2 z E,2 z | F,2 z G,2 z | CEG z3 | A,2 z G,2 z | F,2 z E,2 z | F,2 z G,2 z | %36
 C3 G,3 | E3 C3 | G3 E3 | c3 z z2 | e^d=d ^c=cB | _BA_A G^F=F | E^D=D ^C=CB, | _B,A,^G, =G,^F,=F, | %44
 E,2 z z3 | F,2 z z3 | z3 !>!^F,3 | G,2 z [G,DF]2 z | C2 z z3 | G,2 z z3 | C2 z z3 | [G,DF]2 z z3 | %52
 G,6 |] %53

